!!!!SEGMENT: pl-sa--79-a-ii-19--001-019_siwinski-andrzej--missa-pro-defunctis-agnus-dei.krn
!!!cenid: 17xx:311
!!!COM: Siwiński, Andrzej
!!!COM-rismID: pe41011487
!!!CDT: <1725->1725
!!!CNT:
!!!OPR: Missa pro defunctis
!!!OTL: Agnus Dei
!!!OMV: 019
!!!PDT: 1726
!!!AGN: Sacred; Mass
!!!YEC: Copyright 2022 Narodowy Instytut Fryderyka Chopina (https://polishscores.org)
!!!YEM: License CC-BY-4.0 (https://creativecommons.org/licenses/by/4.0)
!!!SMS-siglum: PL-SA
!!!SMS-shelfmark: 79/A II 19
!!!SMS-shelfwork: 001-019 M
!!!NIFC-rismSourceID: 1001070177
!!!NIFC-rismChildID: 1001070177
!!!NIFC-islandoraID: none
!!!URL-pdf-islandora:
!!!URL-scan: https://bc.bdsandomierz.pl/dlibra/publication/1356/edition/1324/content @EN{Scan in the Sandomierz Diocese Digital Library} @PL{Skany w portalu Cyfrowa Biblioteka Diecezjalna w Sandomierzu}
!!!IIIF:
!!!ONB-nifc: Uwaga: części Mszy: Requiem, Kyrie, Dies Irae, Quantus tremor, Tuba mirrum, Mors, Quid sum miser, Rex tremende, Quaerens me, Iuste iudex, Oro supplex, Pie Iesu Domine, Domine Iesu Christe,Quam olim Abrahae, Hostias, Sanctus, Osanna, Benedictus, Agnus Dei
!!!AIN: 1 alto 1 bass 2 oboe 1 organ 1 soprn 1 tenor 2 violn
!!!key: c
**kern	**fba	**kern	**kern	**kern	**text	**mod-text	**kern	**text	**mod-text	**kern	**text	**mod-text	**kern	**text	**mod-text	**kern	**kern
*	*	*group3	*group3	*group2	*	*	*group2	*	*	*group2	*	*	*group2	*	*	*group1	*group1
*part9	*part9	*part8	*part7	*part6	*part6	*part6	*part5	*part5	*part5	*part4	*part4	*part4	*part3	*part3	*part3	*part2	*part1
*staff9	*staff9	*staff8	*staff7	*staff6	*staff6	*staff6	*staff5	*staff5	*staff5	*staff4	*staff4	*staff4	*staff3	*staff3	*staff3	*staff2	*staff1
*I"Baſso pro Organo	*	*I"Violino. 2do	*I"Violino 1mo	*I"Baſso vocali	*	*	*I"Tenore	*	*	*I"Alto.	*	*	*I"Canto.	*	*	*I"Hobois 2do.	*I"Hautbo. 1mo.
*mI"Organo	*	*mI"Violino II	*mI"Violino I	*mI"Basso	*	*	*	*	*	*mI"Alto	*	*	*mI"Soprano	*	*	*mI"Oboe II	*mI"Oboe I
*I'org	*	*I'vl 2	*I'vl 1	*I'B	*	*	*I'T	*	*	*I'A	*	*	*I'S	*	*	*I'ob 2	*I'ob 1
*Iorgan	*	*Ivioln	*Ivioln	*Ibass	*	*	*Itenor	*	*	*Ialto	*	*	*Isoprn	*	*	*Ioboe	*Ioboe
*ICklav	*	*ICstr	*ICstr	*ICvox	*	*	*ICvox	*	*	*ICvox	*	*	*ICvox	*	*	*ICww	*ICww
*IGcont	*	*	*	*	*	*	*	*	*	*	*	*	*	*	*	*	*
*clefF4	*	*clefG2	*clefG2	*clefF4	*	*	*clefC4	*	*	*clefC3	*	*	*clefC1	*	*	*clefG2	*clefG2
*k[b-e-]	*	*k[b-e-]	*k[b-e-]	*k[b-e-]	*	*	*k[b-e-]	*	*	*k[b-e-]	*	*	*k[b-e-]	*	*	*k[b-e-]	*k[b-e-]
*mk[b-e-a-]	*	*mk[b-e-a-]	*mk[b-e-a-]	*mk[b-e-a-]	*	*	*mk[b-e-a-]	*	*	*mk[b-e-a-]	*	*	*mk[b-e-a-]	*	*	*mk[b-e-a-]	*mk[b-e-a-]
*c:	*	*c:	*c:	*c:	*	*	*c:	*	*	*c:	*	*	*c:	*	*	*c:	*c:
*M2/2	*	*M2/2	*M2/2	*M2/2	*	*	*M2/2	*	*	*M2/2	*	*	*M2/2	*	*	*M2/2	*M2/2
*met(c|)	*	*met(c|)	*met(c|)	*met(c|)	*	*	*met(c|)	*	*	*met(c|)	*	*	*met(c|)	*	*	*met(c|)	*met(c|)
*mmet(c|)	*	*mmet(c|)	*mmet(c|)	*mmet(c|)	*	*	*mmet(c|)	*	*	*mmet(c|)	*	*	*mmet(c|)	*	*	*mmet(c|)	*mmet(c|)
=1	=1	=1	=1	=1	=1	=1	=1	=1	=1	=1	=1	=1	=1	=1	=1	=1	=1
!LO:TX:a:i:t=Solo	!	!	!	!	!	!	!	!	!	!	!	!	!	!	!	!	!
!LO:TX:b:t=Agnus. Canto.:mod=	!	!	!LO:TX:b:t=Canti:mod=	!LO:TX:b:t=C:mod=	!	!	!	!	!	!	!	!	!	!	!	!	!
!LO:TX:a:t=P:problem=mixed beam	!	!	!LO:TX:a:t=5:mod=	!LO:TX:a:t=1:mod=	!	!	!	!	!	!	!	!	!	!	!	!	!
!	!	!LO:TX:b:t=Agnuſ:mod=	!LO:TX:a:t=Agnus Dei:mod=	!	!	!	!LO:TX:b:t=Agnus C.:mod=	!	!	!LO:TX:b:t=Agnus dei:mod=	!	!	!LO:TX:a:i:t=Solo:mod=	!	!	!LO:TX:b:t=Agnus. C.:mod=	!LO:TX:b:t=Agnus Dei.:mod=
8C/L	.	00r	00r	1r	.	.	1r	.	.	1r	.	.	4cc\	A-	A-	00r	00r
8c\	.	.	.	.	.	.	.	.	.	.	.	.	.	.	.	.	.
8Bn\	6	.	.	.	.	.	.	.	.	.	.	.	4dd\	-gnus	-gnus	.	.
8G\J	.	.	.	.	.	.	.	.	.	.	.	.	.	.	.	.	.
!LO:TX:a:t=P:problem=mixed beam	!	!	!	!	!	!	!	!	!	!	!	!	!	!	!	!	!
*	*	*	*	*	*	*	*	*	*	*	*	*	*	*ij	*	*	*
8c\L	.	.	.	.	.	.	.	.	.	.	.	.	4ee-\	A-	A-	.	.
8C/	.	.	.	.	.	.	.	.	.	.	.	.	.	.	.	.	.
8BBn/	6	.	.	.	.	.	.	.	.	.	.	.	4dd\	-gnus	-gnus	.	.
8GG/J	.	.	.	.	.	.	.	.	.	.	.	.	.	.	.	.	.
*	*	*	*	*	*	*	*	*	*	*	*	*	*	*Xij	*	*	*
=2	=2	=2	=2	=2	=2	=2	=2	=2	=2	=2	=2	=2	=2	=2	=2	=2	=2
!LO:TX:a:t=P:problem=mixed beam	!	!	!	!	!	!	!	!	!	!	!	!	!	!	!	!	!
8C\L	.	.	.	2r	.	.	2r	.	.	2r	.	.	8cc\L	De-	De-	.	.
8F\	.	.	.	.	.	.	.	.	.	.	.	.	16dd\L	.	.	.	.
.	.	.	.	.	.	.	.	.	.	.	.	.	16ee-\JJ	.	.	.	.
8G\	.	.	.	.	.	.	.	.	.	.	.	.	4bn\	.	.	.	.
8GG/J	.	.	.	.	.	.	.	.	.	.	.	.	.	.	.	.	.
4C/	.	.	.	4r	.	.	4r	.	.	4r	.	.	4cc\	-i	-i	.	.
!LO:TX:b:t=A.T.B.:mod=	!	!	!	!	!	!	!	!	!	!	!	!	!	!	!	!	!
4c\	.	.	.	4c\	Qui	Qui	4e-\	Qui	Qui	4g\	Qui	Qui	4r	.	.	.	.
=3	=3	=3	=3	=3	=3	=3	=3	=3	=3	=3	=3	=3	=3	=3	=3	=3	=3
8Bn\L	6	.	.	4Bn\	tol-	tol-	4d\	tol-	tol-	4g\	tol-	tol-	0r	.	.	.	.
8A\	.	.	.	.	.	.	.	.	.	.	.	.	.	.	.	.	.
8B\	6	.	.	8B\	-lis	-lis	8d\	-lis	-lis	8g\	-lis	-lis	.	.	.	.	.
8G\J	.	.	.	8G\	pec-	pec-	8d\	pec-	pec-	8g\	pec-	pec-	.	.	.	.	.
8c\L	.	.	.	8c\	-ca-	-ca-	8e-\	-ca-	-ca-	8g\	-ca-	-ca-	.	.	.	.	.
8B-X\J	.	.	.	8B-X\	-ta	-ta	8d\	-ta	-ta	8f\	-ta	-ta	.	.	.	.	.
4A-X\	7	.	.	4A-X\	mun-	mun-	4c\	mu(n)-	mun-	(8e-\L	mun-	mun-	.	.	.	.	.
.	6	.	.	.	.	.	.	.	.	8f\J)	.	.	.	.	.	.	.
=4	=4	=4	=4	=4	=4	=4	=4	=4	=4	=4	=4	=4	=4	=4	=4	=4	=4
4G\	.	.	.	4G\	-di	-di	4Bn\	-di	-di	4g\	-di	-di	.	.	.	.	.
8C/L	.	.	.	8C/	do-	do-	8e-\	do-	do-	8g\	do-	do-	.	.	.	.	.
8C/J	.	.	.	8C/	-na	-na	8e-\	-na	-na	8g\	-na	-na	.	.	.	.	.
8F\L	.	.	.	8F\L	e-	e-	4c\	e-	e-	4a-X\	e-	e-	.	.	.	.	.
8G\	.	.	.	8G\	.	.	.	.	.	.	.	.	.	.	.	.	.
8A-X\	.	.	.	8A-X\J	.	.	4c\	-is	-is	4a-\	-is	-is	.	.	.	.	.
8F\J	.	.	.	8F\	-is	-is	.	.	.	.	.	.	.	.	.	.	.
=5	=5	=5	=5	=5	=5	=5	=5	=5	=5	=5	=5	=5	=5	=5	=5	=5	=5
!LO:TX:a:t=P:problem=mixed beam	!	!	!	!	!	!	!	!	!	!	!	!	!	!	!	!	!
8G\L	.	1r	1r	4.G\	Re-	re-	4.d\	Re-	re-	4.g\	Re-	re-	1r	.	.	1r	1r
8F\	.	.	.	.	.	.	.	.	.	.	.	.	.	.	.	.	.
8G\	.	.	.	.	.	.	.	.	.	.	.	.	.	.	.	.	.
.	4	.	.	.	.	.	.	.	.	.	.	.	.	.	.	.	.
8GG/J	3	.	.	8G\	-qui-	-qui-	8d\	-qui-	-qui-	8g\	-qui-	-qui-	.	.	.	.	.
!	!	!	!	!LO:TX:a:i:t=Finis:mod=	!	!	!LO:TX:a:i:t=Finis:mod=	!	!	!	!	!	!	!	!	!	!
2C/	.	.	.	2C/	-em	-em	2c\	-em	-em	2g\	-em	-em	.	.	.	.	.
!LO:LB:g=original	!	!	!	!LO:LB:g=original	!	!	!LO:LB:g=original	!	!	!	!	!	!	!	!	!	!
=6||	=6||	=6||	=6||	=6||	=6||	=6||	=6||	=6||	=6||	=6||	=6||	=6||	=6||	=6||	=6||	=6||	=6||
!LO:MO:null:mod=*M2/2	!	!	!	!	!	!	!	!	!	!	!	!	!	!	!	!	!
*null	*	*M2/2	*M2/2	*M2/2	*	*	*M2/2	*	*	*M2/2	*	*	*M2/2	*	*	*M2/2	*M2/2
!LO:MO:null:mod=*met(c|)	!	!	!	!	!	!	!	!	!	!	!	!	!	!	!	!	!
*null	*	*met(c|)	*met(c|)	*met(c|)	*	*	*met(c|)	*	*	*met(c|)	*	*	*met(c|)	*	*	*met(c|)	*met(c|)
*mmet(c|)	*	*mmet(c|)	*mmet(c|)	*mmet(c|)	*	*	*mmet(c|)	*	*	*mmet(c|)	*	*	*mmet(c|)	*	*	*mmet(c|)	*mmet(c|)
!	!	!	!LO:TX:b:t=C.	!	!	!	!LO:TX:a:t=Agnus:mod=	!	!	!	!	!	!	!	!	!	!
!LO:TX:a:t=P:problem=mixed beam	!	!LO:TX:b:t=agnuſ	!LO:TX:a:t=5	!	!	!	!	!	!	!	!	!	!	!	!	!LO:TX:b:t=Agnus	!LO:TX:b:t=Agnus. C.
8GG/L	.	00r	00r	1r	.	.	1r	.	.	1r	.	.	4g\	A-	A-	00r	00r
8G\	.	.	.	.	.	.	.	.	.	.	.	.	.	.	.	.	.
8F#X\	6	.	.	.	.	.	.	.	.	.	.	.	4a\	-gnus	-gnus	.	.
8D\J	.	.	.	.	.	.	.	.	.	.	.	.	.	.	.	.	.
*	*	*	*	*	*	*	*	*	*	*	*	*	*	*ij	*	*	*
8G\L	.	.	.	.	.	.	.	.	.	.	.	.	4b-\	A-	A-	.	.
8G\	.	.	.	.	.	.	.	.	.	.	.	.	.	.	.	.	.
8F#X\	6	.	.	.	.	.	.	.	.	.	.	.	4a\	-gnus	-gnus	.	.
8D\J	.	.	.	.	.	.	.	.	.	.	.	.	.	.	.	.	.
*	*	*	*	*	*	*	*	*	*	*	*	*	*	*Xij	*	*	*
=7	=7	=7	=7	=7	=7	=7	=7	=7	=7	=7	=7	=7	=7	=7	=7	=7	=7
8E-/L	.	.	.	2r	.	.	2r	.	.	2r	.	.	8g\L	De-	De-	.	.
8C/	.	.	.	.	.	.	.	.	.	.	.	.	16a\L	.	.	.	.
.	.	.	.	.	.	.	.	.	.	.	.	.	16b-\JJ	.	.	.	.
8D/	.	.	.	.	.	.	.	.	.	.	.	.	4f#X/	.	.	.	.
8DD/J	4	.	.	.	.	.	.	.	.	.	.	.	.	.	.	.	.
.	3	.	.	.	.	.	.	.	.	.	.	.	.	.	.	.	.
4GG/	.	.	.	4r	.	.	4r	.	.	4r	.	.	4g/	-i	-i	.	.
4G\	.	.	.	4G\	Qui	Qui	4B-\	Qui	Qui	4d\	Qui	Qui	4r	.	.	.	.
=8	=8	=8	=8	=8	=8	=8	=8	=8	=8	=8	=8	=8	=8	=8	=8	=8	=8
8F#X\L	6	.	.	4F#X\	tol-	tol-	4A\	tol-	tol-	4d\	tol-	tol-	0r	.	.	.	.
8En\	.	.	.	.	.	.	.	.	.	.	.	.	.	.	.	.	.
8F#X\	.	.	.	8F#\	-lis	-lis	8A\	-lis	-lis	8d\	-lis	-lis	.	.	.	.	.
!	!	!	!	!	!	!	!	!	!	!LO:LB:g=original	!	!	!	!	!	!	!
8D\J	.	.	.	8D\	pec-	pec-	8A\	pec-	pec-	8f#X\	pec-	pec-	.	.	.	.	.
8G\L	.	.	.	8G\	-ca-	-ca-	8B-\	-ca-	-ca-	8g\	-ca-	-ca-	.	.	.	.	.
!LO:SIC:o=8F#\J:v	!	!	!	!LO:TX:a:t=P:problem:♮ above	!	!	!	!	!	!	!	!	!	!	!	!	!
8Fn	.	.	.	8Fn\	-ta	-ta	8c\	-ta	-ta	8a\	-ta	-ta	.	.	.	.	.
.	7	.	.	.	.	.	.	.	.	.	.	.	.	.	.	.	.
4E-X/	6	.	.	4E-\	mun-	mun-	4B-\	mu(n)-	mun-	4g\	mun-	mun-	.	.	.	.	.
=9	=9	=9	=9	=9	=9	=9	=9	=9	=9	=9	=9	=9	=9	=9	=9	=9	=9
4D/	.	.	.	4D\	-di	-di	4A\	-di	-di	4f#X\	-di	-di	.	.	.	.	.
8GG/L	.	.	.	8GG/	do-	do-	8B-\	do-	do-	8d\	do-	do-	.	.	.	.	.
8GG/J	.	.	.	8GG/	-na	-na	8B-\	-na	-na	8d\	-na	-na	.	.	.	.	.
8C/L	.	.	.	(8C/L	e-	e-	4e-\	e-	e-	4g\	e-	e-	.	.	.	.	.
8D/	.	.	.	8D/	.	.	.	.	.	.	.	.	.	.	.	.	.
8E-/	.	.	.	8E-/J)	.	.	4e-\	-is	-is	4g\	-is	-is	.	.	.	.	.
8C/J	.	.	.	8C/	-is	-is	.	.	.	.	.	.	.	.	.	.	.
=10	=10	=10	=10	=10	=10	=10	=10	=10	=10	=10	=10	=10	=10	=10	=10	=10	=10
!	!	!	!LO:TX:b:t=Verte Cito at agnus	!	!	!	!LO:TX:a:t=a:mod=	!	!	!	!	!	!	!	!	!	!
!	!	!	!	!	!	!	!LO:SIC:v:o=4.A\ 4.c	!	!	!	!	!	!	!	!	!	!
8D/L	.	1r	1r	4.D\	Re-	re-	4.A\	Re-	re-	4.f#X\	Re-	re-	1r	.	.	1r	1r
8C/	.	.	.	.	.	.	.	.	.	.	.	.	.	.	.	.	.
8D/	.	.	.	.	.	.	.	.	.	.	.	.	.	.	.	.	.
!	!	!	!	!	!	!	!LO:TX:a:t=a:mod=	!	!	!	!	!	!	!	!	!	!
!	!	!	!	!	!	!	!LO:SIC:v:o=8A\ 8c	!	!	!	!	!	!	!	!	!	!
8DD/J	4	.	.	8D\	-qui-	-qui-	8A\	-qui-	-qui-	8f#\	-qui-	-qui-	.	.	.	.	.
.	3	.	.	.	.	.	.	.	.	.	.	.	.	.	.	.	.
!	!	!	!	!LO:TX:a:i:t=Finis:mod=	!	!	!LO:TX:a:i:t=Finis:mod=	!	!	!	!	!	!	!	!	!	!
2GG/	.	.	.	2GG/	-em	-em	2B-\	-em	-em	2g\	-em	-em	.	.	.	.	.
!LO:LB:g=original	!	!	!LO:LB:g=original	!LO:LB:g=original	!	!	!LO:LB:g=original	!	!	!	!	!	!LO:LB:g=original	!	!	!	!
=11||	=11||	=11||	=11||	=11||	=11||	=11||	=11||	=11||	=11||	=11||	=11||	=11||	=11||	=11||	=11||	=11||	=11||
*M3/4	*	*M3/4	*M3/4	*M3/4	*	*	*M3/4	*	*	*M3/4	*	*	*M3/4	*	*	*M3/4	*M3/4
!LO:MO:mod=!LO&colon;TX&colon;a&colon;i&colon;t=Tutti	!	!	!	!	!	!	!	!	!	!	!	!	!	!	!	!	!
!LO:TX:b:i:t=Tutti	!	!	!	!	!	!	!	!	!	!	!	!	!	!	!	!	!LO:TX:a:i:t=Tutti:mod=
!LO:TX:b:t=Agnus:mod=	!	!LO:TX:b:t=agnuſ:mod=	!LO:TX:b:t=Agnus:mod=	!	!	!	!	!	!	!	!	!	!	!	!	!LO:TX:b:t=Agnus:mod=	!LO:TX:b:t=agnus dei.:mod=
4C/	.	4cc\	4gg\	2c\	A-	A-	2c\	A-	A-	2g\	A-	A-	2ee-\	A-	A-	2g/	4cc\
4c\	.	4gg\	4ee-\	.	.	.	.	.	.	.	.	.	.	.	.	.	4ee-\
4C/	.	4ee-\	4gg\	4c\	-gnus	-gnus	4c\	-gnus	-gnus	4g\	-gnus	-gnus	4ee-\	-gnus	-gnus	4g/	4cc\
=12	=12	=12	=12	=12	=12	=12	=12	=12	=12	=12	=12	=12	=12	=12	=12	=12	=12
4Bn\	6	4gg\	4dd\	4Bn\	De-	De-	4Bn\	De-	De-	4g\	De-	De-	4dd\	De-	De-	4g/	4dd\
!	!	!	!	!	!	!	!	!	!	!	!	!	!	!	!	!	!LO:TX:a:t=P:problem:♮ above
4G\	.	4dd\	4gg\	4G\	-i	-i	4d\	-i	-i	4g\	-i	-i	4dd\	-i	-i	4dd\	4bn\
4B\	6	4gg\	4dd\	4B\	qui	qui	4B\	qui	qui	4g\	qui	qui	4dd\	qui	qui	4g/	4dd\
=13	=13	=13	=13	=13	=13	=13	=13	=13	=13	=13	=13	=13	=13	=13	=13	=13	=13
4c\	.	4gg\	4ee-\	4c\	tol-	tol-	4c\	tol-	tol-	4g\	tol-	tol-	4ee-\	tol-	tol-	4cc\	4ee-\
4c\	.	4cc\	4ee-\	4c\	-lis	-lis	4c\	-lis	-lis	4g\	-lis	-lis	4ee-\	-lis	-lis	4cc\	4ee-\
4E-\	.	4ee-\	4gg\	4E-\	pec-	pec-	4e-\	pec-	pec-	4g\	pec-	pec-	4ee-\	pec-	pec-	4ee-\	4gg\
=14	=14	=14	=14	=14	=14	=14	=14	=14	=14	=14	=14	=14	=14	=14	=14	=14	=14
4G\	6	4b-\	4gg\	4G\	-ca-	-ca-	4d\	-ca-	-ca-	4g\	-ca-	-ca-	4b-\	-ca-	-ca-	4b-\	4gg\
!	!	!	!LO:TX:t=P:problem:♭ above	!LO:SIC:o=4A-X\	!	!	!	!	!	!	!	!	!	!	!	!	!
4A-X\	.	4cc\	4aa-\	(4A-	-ta	-ta	(4c\	-ta	-ta	(4a-X\	-ta	-ta	(4cc\	-ta	-ta	4cc\	4aa-X\
!	!	!	!	!	!	!	!	!	!	!LO:TX:a:t=P:problem=klamra łukowa nad nutą	!	!	!	!	!	!	!
!	!	!	!	!LO:SIC:o=4B-X\	!	!	!	!	!	!LO:SIC:o=4f\	!	!	!	!	!	!	!
4B-\	.	4dd\	4ff\	4B-)	.	.	4B-\)	.	.	4f)	.	.	4dd\)	.	.	4dd\	4ff\
=15	=15	=15	=15	=15	=15	=15	=15	=15	=15	=15	=15	=15	=15	=15	=15	=15	=15
!	!	!	!LO:TX:t=P:problem:♭ above	!LO:SIC:o=4A-X\	!	!	!	!	!	!LO:SIC:o=8a-X\L)	!	!	!LO:SIC:o=8ff\L	!	!	!	!
4A-X\	6	4cc\	4aa-\	(4A-	mun-	mun-	(2c\	mu(n)-	mun-	(8a-L	mun-	mun-	(8ffL	Mun-	mun-	4a-X/	4aa-X\
.	5	.	.	.	.	.	.	.	.	8g\J	.	.	8ee-\J	.	.	.	.
!	!	!	!	!LO:SIC:o=(4B-\	!	!	!	!	!	!LO:SIC:o=2f\	!	!	!LO:SIC:o=2dd\	!	!	!	!
4B-\	.	4dd\	4.ff\	4B-	.	.	.	.	.	2f)	-di	.	2dd)	.	.	4.f/	4.ff\
.	4	.	.	.	.	.	.	.	.	.	.	.	.	.	.	.	.
4BB-/	3	4dd\	.	4BB-/)	.	.	4B-\)	.	.	.	.	.	.	.	.	.	.
.	.	.	8ff\	.	.	.	.	.	.	.	.	.	.	.	.	8f/	8ff\
!	!	!	!	!	!	!	!	!	!	!LO:LB:g=original	!	!	!	!	!	!	!LO:LB:g=original
=16	=16	=16	=16	=16	=16	=16	=16	=16	=16	=16	=16	=16	=16	=16	=16	=16	=16
4E-\	.	4ee-\	4gg\	4E-\	-di	-di	4B-\	-di	-di	4g\	di	-di	4ee-\	-di	-di	4g/	4gg\
4r	.	8ee-\L	8gg\L	4r	.	.	4r	.	.	4r	.	.	4r	.	.	8ee-\L	8gg\L
!	!	!	!LO:TX:t=P:problem:♭ above	!	!	!	!	!	!	!	!	!	!	!	!	!	!
.	.	8ff\	8aa-\	.	.	.	.	.	.	.	.	.	.	.	.	8ff\	8aa-X\
4r	.	8ee-\	8gg\	4r	.	.	4r	.	.	4r	.	.	4r	.	.	8ee-\	8gg\
.	.	8dd\J	8ff\J	.	.	.	.	.	.	.	.	.	.	.	.	8dd\J	8ff\J
!	!	!	!	!LO:TX:a:t=P:problem=brak kreski taktowej	!	!	!	!	!	!	!	!	!	!	!	!	!
=17	=17	=17	=17	=17-zz	=17	=17	=17	=17	=17	=17	=17	=17	=17	=17	=17	=17	=17
!	!	!	!	!LO:SIC:o=4C/	!	!	!	!	!	!	!	!	!	!	!	!	!
4C/	.	4cc\	4ee-\	(4C	Do-	do-	2c\	Do-	do-	2g\	do-	do-	2ee-\	do-	do-	4cc\	4ee-\
!	!	!	!	!LO:SIC:o=4D/	!	!	!	!	!	!	!	!	!	!	!	!	!
4D/	.	4r	4r	4D)	.	.	.	.	.	.	.	.	.	.	.	4cc\	4gg\
4E-/	.	4r	4r	4E-/	-na	-na	4c\	-na	-na	4g\	-na	-na	4ee-\	-na	-na	4cc\	4ee-\
!	!	!	!	!	!	!	!	!	!	!	!	!	!	!	!	!LO:LB:g=original	!
=18	=18	=18	=18	=18	=18	=18	=18	=18	=18	=18	=18	=18	=18	=18	=18	=18	=18
!	!	!	!	!	!	!	!	!	!	!	!	!	!	!	!	!LO:SIC:o=2a/:v	!
4F\	.	4r	4r	(4F\	e-	e-	2c\	e-	e-	2a-X\	e-	e-	2cc\	e-	e-	2a-	2cc\
!	!	!	!LO:TX:t=P:problem:♭ above	!LO:SIC:o=4E-\	!	!	!	!	!	!	!	!	!	!	!	!	!
4E-\	.	4cc\	4aa-\	4E-)	.	.	.	.	.	.	.	.	.	.	.	.	.
!	!	!	!	!LO:SIC:o=4F\)	!	!	!	!	!	!	!	!	!	!	!	!	!
4F\	.	4cc\	4aa-\	4F	-is	-is	4c\	-is	-is	4a-\	-is	-is	4cc\	-is	-is	4r	4r
!	!	!LO:LB:g=original	!	!	!	!	!	!	!	!	!	!	!LO:LB:g=original	!	!	!	!
=19	=19	=19	=19	=19	=19	=19	=19	=19	=19	=19	=19	=19	=19	=19	=19	=19	=19
*	*	*	*	*	*	*	*	*ij	*	*	*ij	*	*	*	*	*	*
!	!	!	!	!LO:SIC:o=4D\	!	!	!	!	!	!	!	!	!	!	!	!	!
4D\	.	4dd\	4ff\	(4D	do-	do-	2d\	Do-	do-	2f\	do-	do-	2ff\	do-	do-	4r	4r
!	!	!	!	!LO:SIC:o=(4E-\	!	!	!	!	!	!	!	!	!	!	!	!	!
4E-\	.	4r	4r	4E-)	-na	.	.	.	.	.	.	.	.	.	.	4dd\	4ff\
!	!	!	!	!LO:SIC:o=4F\)	!	!	!	!	!	!	!	!	!	!	!	!	!
4F\	6	4r	4r	4F	.	-na	4d\	-na	-na	4f\	-na	-na	4ff\	-na	-na	4dd\	4ff\
=20	=20	=20	=20	=20	=20	=20	=20	=20	=20	=20	=20	=20	=20	=20	=20	=20	=20
!	!	!	!	!LO:SIC:o=4G\	!	!	!	!	!	!	!	!	!	!	!	!	!
4G\	.	4r	4r	(4G	e-	e-	2d\	e-	e-	2g\	e-	e-	2dd\	e-	e-	2bn\	2dd\
!	!	!LO:TX:a:t=P:problem:♮ above	!	!LO:SIC:o=(4F\	!	!	!	!	!	!	!	!	!	!	!	!	!
4F\	.	4bn\	4dd\	4F)	-is	.	.	.	.	.	.	.	.	.	.	.	.
!	!	!	!	!LO:SIC:o=4G\)	!	!	!	!	!	!	!	!	!	!	!	!	!
4G\	.	4b\	4dd\	4G	.	-is	4d\	-is	-is	4g\	-is	-is	4dd\	-is	-is	4r	4r
!LO:LB:g=original	!	!	!	!LO:LB:g=original	!	!	!LO:LB:g=original	!	!	!	!	!	!	!	!	!	!
=21	=21	=21	=21	=21	=21	=21	=21	=21	=21	=21	=21	=21	=21	=21	=21	=21	=21
*	*	*	*	*	*	*	*	*	*	*	*Xij	*	*	*ij	*	*	*
!	!	!	!	!LO:SIC:o=4E-\	!	!	!	!	!	!	!	!	!	!	!	!	!
4E-\	.	4ee-\	4gg\	(4E-	Do-	do-	2e-\	Do-	do-	2g\	do-	do-	2gg\	do-	do-	4r	4r
!	!	!	!	!LO:SIC:o=(4F\	!	!	!	!	!	!	!	!	!	!	!	!	!
4F\	.	4r	4r	4F)	-na	.	.	.	.	.	.	.	.	.	.	4ee-\	4gg\
!	!	!	!	!LO:SIC:o=4G\)	!	!	!	!	!	!	!	!	!	!	!	!	!
4G\	.	4r	4r	4G	.	-na	4e-\	-na	-na	4g\	-na	-na	4gg\	-na	-na	4ee-\	4gg\
!	!	!	!LO:LB:g=original	!	!	!	!	!	!	!	!	!	!	!	!	!	!
=22	=22	=22	=22	=22	=22	=22	=22	=22	=22	=22	=22	=22	=22	=22	=22	=22	=22
!	!	!	!	!LO:SIC:o=4A-X\	!	!	!	!	!	!	!	!	!	!	!	!	!
4A-X\	.	4r	4r	(4A-	e-	e-	2e-\	e-	e-	2a-X\	e-	e-	2ee-\	e-	e-	4cc\	8ee-\L
.	.	.	.	.	.	.	.	.	.	.	.	.	.	.	.	.	8dd\
8G\L	.	4r	4r	8G\L	-is	.	.	.	.	.	.	.	.	.	.	4dd\	8ee-\
!	!	!	!	!LO:SIC:o=8F\J	!	!	!	!	!	!	!	!	!	!	!	!	!
8F\J	.	.	.	8FJ)	.	.	.	.	.	.	.	.	.	.	.	.	8ff\J
4E-\	.	4ee-\	4gg\	4E-\	.	-is	4e-\	-is	-is	4g\	-is	-is	4ee-\	-is	-is	4ee-\	4gg\
*	*	*	*	*	*	*	*	*Xij	*	*	*	*	*	*Xij	*	*	*
=23	=23	=23	=23	=23	=23	=23	=23	=23	=23	=23	=23	=23	=23	=23	=23	=23	=23
!	!	!	!	!LO:SIC:o=4F\	!	!	!LO:SIC:o=4c\	!	!	!	!	!	!LO:SIC:o=8ff\L	!	!	!	!
4F\	.	4cc\	4aa-X\	(4F	re-	re-	(4c	Re-	re-	(4a-X\	Re-	re-	(8ffL	Re-	re-	4cc\	4aa-X\
.	.	.	.	.	.	.	.	.	.	.	.	.	8ee-\J	.	.	.	.
!	!	!LO:TX:a:t=P:problem:♮ above	!	!LO:SIC:o=4.G\	!	!	!LO:SIC:o=4.Bn\	!	!	!	!	!	!LO:SIC:o=4.dd\	!	!	!	!
4G\	.	4bn\	4.gg\	4.G)	.	.	4.B)	.	.	4.g\)	.	.	4.dd)	.	.	4.g/	4.dd\
4GG/	4	4b\	.	.	.	.	.	.	.	.	.	.	.	.	.	.	.
.	2	.	8gg\	8G\	-qui-	-qui-	8B\	-qui-	-qui-	8g\	-qui-	-qui-	8cc\	-qui-	-qui-	8f/	8cc\
=24	=24	=24	=24	=24	=24	=24	=24	=24	=24	=24	=24	=24	=24	=24	=24	=24	=24
4C/	.	4cc\	4gg\	4C/	-em	-em	4c\	-em	-em	4g\	-em	-em	4cc\	-em	-em	4e-/	4cc\
!	!	!	!	!	!	!	!	!	!	!	!	!	!	!	!	!LO:TX:a:t=P:problem:♮ above	!
4G\	.	4dd\	8gg\L	4r	.	.	4r	.	.	4r	.	.	4r	.	.	4bn\	4dd\
!	!	!	!LO:TX:t=P:problem:♭ above	!	!	!	!	!	!	!	!	!	!	!	!	!	!
.	.	.	8aa-\	.	.	.	.	.	.	.	.	.	.	.	.	.	.
4GG/	4	4dd\	8gg\	4r	.	.	4r	.	.	4r	.	.	4r	.	.	4b\	4dd\
.	2	.	8ff\J	.	.	.	.	.	.	.	.	.	.	.	.	.	.
=25	=25	=25	=25	=25	=25	=25	=25	=25	=25	=25	=25	=25	=25	=25	=25	=25	=25
!	!	!	!	!LO:SIC:o=4C/	!	!	!	!	!	!	!	!	!	!	!	!	!
4C/	.	4cc\	4ee-\	(4C	Do-	do-	2c\	Do-	do-	2g\	do-	do-	2ee-\	do-	do-	4cc\	4ee-\
!	!	!	!	!LO:SIC:o=4D/	!	!	!	!	!	!	!	!	!	!	!	!	!
4D/	.	4r	4r	4D)	.	.	.	.	.	.	.	.	.	.	.	4cc\	4gg\
4E-/	.	4r	4r	4E-/	-na	-na	4c\	-na	-na	4g\	-na	-na	4ee-\	-na	-na	4cc\	4ee-\
=26	=26	=26	=26	=26	=26	=26	=26	=26	=26	=26	=26	=26	=26	=26	=26	=26	=26
4F\	.	4r	4r	(4F\	e-	e-	2c\	e-	e-	2a-X\	e-	e-	2cc\	e-	e-	2a-X/	2cc\
!	!	!	!	!LO:SIC:o=4E-\	!	!	!	!	!	!	!	!	!	!	!	!	!
4E-\	.	4cc\	4aa-X\	4E-)	-is	.	.	.	.	.	.	.	.	.	.	.	.
!	!	!	!	!LO:SIC:o=4F\)	!	!	!	!	!	!	!	!	!	!	!	!	!
4F\	.	4cc\	4aa-\	4F	.	-is	4c\	-is	-is	4a-\	-is	-is	4cc\	-is	-is	4r	4r
!	!	!	!	!	!	!	!	!	!	!	!	!	!LO:LB:g=original	!	!	!	!
=27	=27	=27	=27	=27	=27	=27	=27	=27	=27	=27	=27	=27	=27	=27	=27	=27	=27
*	*	*	*	*	*	*	*	*ij	*	*	*ij	*	*	*ij	*	*	*
4D\	.	4dd\	4ff\	(4D\	Do-	do-	2d\	Do-	do-	2f\	do-	do-	2ff\	do-	do-	4r	4r
!	!	!	!	!LO:SIC:o=4E-\	!	!	!	!	!	!	!	!	!	!	!	!	!
4E-\	.	4r	4r	4E-)	.	.	.	.	.	.	.	.	.	.	.	4dd\	4ff\
!	!	!	!	!LO:SIC:o=4F\)	!	!	!	!	!	!	!	!	!	!	!	!	!
4F\	6	4r	4r	4F	-na	-na	4d\	-na	-na	4f\	-na	-na	4ff\	-na	-na	4dd\	4ff\
!	!	!	!	!	!	!	!	!	!	!LO:LB:g=original	!	!	!	!	!	!LO:LB:g=original	!LO:LB:g=original
=28	=28	=28	=28	=28	=28	=28	=28	=28	=28	=28	=28	=28	=28	=28	=28	=28	=28
!	!	!	!	!LO:SIC:o=4G\	!	!	!	!	!	!	!	!	!	!	!	!	!
4G\	.	4r	4r	(4G	e-	e-	2d\	e-	e-	2g\	e-	e-	2dd\	e-	e-	2bn/	2dd\
!	!	!LO:TX:a:t=P:problem:♮ above	!	!LO:SIC:o=4F\	!	!	!	!	!	!	!	!	!	!	!	!	!
4F\	.	4bn\	4dd\	4F)	.	.	.	.	.	.	.	.	.	.	.	.	.
4G\	.	4b\	4dd\	4G\	-is	-is	4d\	-is	-is	4g\	-is	-is	4dd\	-is	-is	4r	4r
*	*	*	*	*	*	*	*	*	*	*	*Xij	*	*	*Xij	*	*	*
=29	=29	=29	=29	=29	=29	=29	=29	=29	=29	=29	=29	=29	=29	=29	=29	=29	=29
!	!	!	!	!LO:SIC:o=4E-\	!	!	!	!	!	!	!	!	!	!	!	!	!
4E-\	.	4ee-X\	4gg\	(4E-	do-	do-	2e-\	Do-	do-	2g\	do-	do-	2gg\	do-	do-	4r	4r
!	!	!	!	!LO:SIC:o=4F\	!	!	!	!	!	!	!	!	!	!	!	!	!
4F\	.	4r	4r	4F)	.	.	.	.	.	.	.	.	.	.	.	4ee-\	4gg\
4G\	.	4r	4r	4G\	-na	-na	4e-\	-na	-na	4g\	-na	-na	4gg\	-na	-na	4ee-\	4gg\
!	!	!LO:LB:g=original	!	!	!	!	!	!	!	!	!	!	!	!	!	!	!
=30	=30	=30	=30	=30	=30	=30	=30	=30	=30	=30	=30	=30	=30	=30	=30	=30	=30
!	!	!	!	!LO:SIC:o=4A-X\	!	!	!	!	!	!	!	!	!	!	!	!	!
4A-X\	.	4r	4r	(4A-	e-	e-	2e-\	e-	e-	2a-X\	e-	e-	2ee-\	e-	e-	4cc\	8ee-\L
.	.	.	.	.	.	.	.	.	.	.	.	.	.	.	.	.	8dd\
8G\L	.	4r	4r	8G\L	.	.	.	.	.	.	.	.	.	.	.	4dd\	8ee-\
!	!	!	!	!LO:SIC:o=8F\J	!	!	!	!	!	!	!	!	!	!	!	!	!
8F\J	.	.	.	8FJ)	.	.	.	.	.	.	.	.	.	.	.	.	8ff\J
4E-\	.	4ee-\	4gg\	4E-\	-is	-is	4e-\	-is	-is	4g\	-is	-is	4ee-\	-is	-is	4ee-\	4gg\
*	*	*	*	*	*	*	*	*Xij	*	*	*	*	*	*	*	*	*
!	!	!	!	!	!	!	!LO:LB:g=original	!	!	!	!	!	!	!	!	!	!
=31	=31	=31	=31	=31	=31	=31	=31	=31	=31	=31	=31	=31	=31	=31	=31	=31	=31
!	!	!	!	!LO:N:vis=4.	!	!	!	!	!	!	!	!	!	!	!	!	!
!	!	!	!	!LO:SIC:o=4F\	!	!	!	!	!	!LO:SIC:o=4a-X\	!	!	!LO:SIC:o=8ff\L	!	!	!	!
4F\	.	4cc\	4aa-X\	(4F	re-	re-	(4c\	Re-	re-	(4a-	Re-	re-	(8ffL	Re-	re-	4cc\	4aa-X\
.	.	.	.	.	.	.	.	.	.	.	.	.	8ee-\J	.	.	.	.
!	!	!LO:TX:a:t=P:problem:♮ above	!	!LO:SIC:o=4.G\	!	!	!	!	!	!LO:SIC:o=(4.g\	!	!	!LO:SIC:o=4.dd\	!	!	!	!
4G\	.	4bn\	4.gg\	4.G)	.	.	4.Bn\)	.	.	4.g)	.	.	4.dd)	.	.	4.g/	4.dd\
.	4	.	.	.	.	.	.	.	.	.	.	.	.	.	.	.	.
4GG/	3	4b\	.	.	.	.	.	.	.	.	.	.	.	.	.	.	.
!	!	!	!	!LO:LB:g=original	!	!	!	!	!	!LO:SIC:o=8g\)	!	!	!	!	!	!	!
.	.	.	8gg\	8G\	-qui-	-qui-	8B\	-qui-	-qui-	8g	-qui-	-qui-	8cc\	-qui-	-qui-	8f/	8cc\
=32	=32	=32	=32	=32	=32	=32	=32	=32	=32	=32	=32	=32	=32	=32	=32	=32	=32
2C/	.	2cc\	2gg\	2C/	-em	-em	2c\	-em	-em	2g\	-em	-em	2cc\	-em	-em	2e-/	2cc\
4r	.	4r	4r	4r	.	.	4r	.	.	4r	.	.	4r	.	.	4r	4r
!LO:LB:g=original	!	!	!LO:LB:g=original	!	!	!	!	!	!	!LO:TX:a:t=tarde:mod=	!	!	!	!	!	!	!
=33||	=33||	=33||	=33||	=33||	=33||	=33||	=33||	=33||	=33||	=33||	=33||	=33||	=33||	=33||	=33||	=33||	=33||
!!LO:TX:a:t= :mod=Tarde
*M2/2	*	*M2/2	*M2/2	*M2/2	*	*	*M2/2	*	*	*M2/2	*	*	*M2/2	*	*	*M2/2	*M2/2
*met(c|)	*	*met(c|)	*met(c|)	*met(c|)	*	*	*met(c|)	*	*	*met(c|)	*	*	*met(c|)	*	*	*met(c|)	*met(c|)
*mmet(c|)	*	*mmet(c|)	*mmet(c|)	*mmet(c|)	*	*	*mmet(c|)	*	*	*mmet(c|)	*	*	*mmet(c|)	*	*	*mmet(c|)	*mmet(c|)
!LO:TX:a:t=Tarde:mod=	!	!	!	!	!	!	!	!	!	!	!	!	!	!	!	!	!LO:TX:a:t=tarde:mod=
!LO:TX:b:t=Dona eis Requiem.:mod=	!	!LO:TX:b:t=Dona nobis Requiem.:mod=	!LO:TX:b:t=Dona eis Requiem.:mod=	!	!	!	!	!	!	!	!	!	!	!	!	!LO:TX:b:t=dona nobis Requiem.:mod=	!LO:TX:b:t=dona eis Requiem.:mod=
8F\L	.	8cc\L	8aa-X\L	8F\	Do-	Do-	8f\	Do-	Do-	8a-X\	Do-	Do-	8a-\	Do-	Do-	8a-X/L	8cc\L
8F\	.	8cc\	8aa-\	8F\	-na	-na	8f\	-na	-na	8a-\	-na	-na	8a-\	-na	-na	8a-/	8cc\
!	!	!	!	!	!	!	!	!	!	!	!	!	!LO:SIC:v:o=8a-\	!	!	!	!
8E-\	.	8cc\	8gg\	8E-\	e-	e-	8e-\	e-	e-	8g\	e-	e-	8g\	e-	e-	8g/	8cc\
8F\J	.	8cc\J	8aa-\J	8F\	-is	-is	8f\	-is	-is	8a-\	-is	-is	8a-\	-is	-is	8a-/J	8cc\J
2G\	.	2bn\	4.gg\	4.G\	Re-	re-	4.d\	Rae-	re-	4.g\	Re-	re-	4.dd\	Re-	re-	4.g/	2dd\
.	.	.	8gg\	8G\	-qui-	-qui-	8d\	-qui-	-qui-	8g\	-qui-	-qui-	8dd\	-qui-	-qui-	8f/	.
=34	=34	=34	=34	=34	=34	=34	=34	=34	=34	=34	=34	=34	=34	=34	=34	=34	=34
!	!	!LO:TX:b:t=Lau Daeo:mod=	!	!	!	!	!	!	!	!	!	!	!	!	!	!	!
!	!	!LO:TX:b:t=Laus Deo:mod=	!LO:TX:b:t=Laus Deo:mod=	!LO:TX:b:t=Laus Deo:mod=	!	!	!LO:TX:b:t=Laus Deo:mod=	!	!	!LO:TX:b:t=ʃempiternam:mod=	!	!	!	!	!	!LO:TX:b:t=Laus Deo:mod=	!LO:TX:b:t=Amen:mod=
1C	.	1cc	1gg	1C	-em	-em	1c	-em	-em	1g	-em	-em	1cc	-em	-em	1e-	1cc
==	==	==	==	==	==	==	==	==	==	==	==	==	==	==	==	==	==
*-	*-	*-	*-	*-	*-	*-	*-	*-	*-	*-	*-	*-	*-	*-	*-	*-	*-
!!!system-decoration: [(g1)][(g2)][(g3)]s9
!!!ENC: Andrzej Borzym
!!!END: 2020-04-29
!!!ENC: Anna Matuszewska
!!!END: 2020-12-03
!!!ENC-mod: Marta Lawrence
!!!END-mod: 2023-08-29
!!!filter-modern: sic -sq | tie -s | autostem -r | shed -e "s/-//B" | humtr -p | shed -e "s/yy//" | shed -k -e "s/([^a-gA-Gn#X-])[<>]/$1/g" | shed -e "s/:rj/:RJ/L" | shed -e "s/TX(.*):t=P:/tx$1:t=P:/LG" | shed -k -e "s/r[a-gA-G]+/r/D" | shed -e "s/LO:N:/LO:n:$1/L" | shed -k -e "s/([#-])[X]/$1/g; s/[n]/$1/g;" | modori -m
